X: 38840
T: Summer's Morning, The
R: reel
M: 4/4
K: Dmixolydian
|:FDDE ~F3D|~GFGA cBAG|FDDE ~F3D|GFGB A~G3:|
|:(3EFG AB c2cA|d^cde ~fdde|~fd~fd cBcA|GFGA cBAG:|

